X: 84
T:Jog On
M:6/8
L:1/8
Q:120
S:Playford
K:G
d2 G d2 e|f>gf ecA| ded a2 g|
M:9/8
f3 e3 e2 f|
M:6/8
g>ag f>gf| e>dc ded|cBc B3| A6:|

